lib/svgs/team-camera.svg

<svg xmlns="http://www.w3.org/2000/svg" viewBox="0 0 20 20">
    <path fill="#000" fill-rule="evenodd" d="M17.375 4.875h-3.438L12.876 3.25c-.125-.125-.313-.25-.5-.25h-3.75c-.188 0-.375.125-.5.25L7.062 4.875H3.626c-.375 0-.625.25-.625.625v10.625c0 .375.25.625.625.625h13.75c.375 0 .625-.25.625-.625V5.5c0-.375-.25-.625-.625-.625m-6.875 8.75A3.095 3.095 0 0 1 7.375 10.5 3.095 3.095 0 0 1 10.5 7.375a3.095 3.095 0 0 1 3.125 3.125 3.095 3.095 0 0 1-3.125 3.125M3.625 3h2.5v1.25h-2.5V3"/>
</svg>

<?xml version="1.0" encoding="UTF-8" standalone="no"?>
<svg width="20px" height="20px" viewBox="0 0 20 20" version="1.1" xmlns="http://www.w3.org/2000/svg" xmlns:xlink="http://www.w3.org/1999/xlink">
    <defs></defs>
    <g id="Icons" stroke="none" stroke-width="1" fill="none" fill-rule="evenodd">
        <g id="Web" transform="translate(-145.000000, -2392.000000)" fill="#000000">
            <g id="team/team-camera" transform="translate(145.000000, 2392.000000)">
                <path d="M17.375,4.875 L13.9375,4.875 L12.875,3.25 C12.75,3.125 12.5625,3 12.375,3 L8.625,3 C8.4375,3 8.25,3.125 8.125,3.25 L7.0625,4.875 L3.625,4.875 C3.25,4.875 3,5.125 3,5.5 L3,16.125 C3,16.5 3.25,16.75 3.625,16.75 L17.375,16.75 C17.75,16.75 18,16.5 18,16.125 L18,5.5 C18,5.125 17.75,4.875 17.375,4.875 M10.5,13.625 C8.75,13.625 7.375,12.25 7.375,10.5 C7.375,8.75 8.75,7.375 10.5,7.375 C12.25,7.375 13.625,8.75 13.625,10.5 C13.625,12.25 12.25,13.625 10.5,13.625 M3.625,3 L6.125,3 L6.125,4.25 L3.625,4.25 L3.625,3" id="Shape"></path>
            </g>
        </g>
    </g>
</svg>
